src/images/logo_footer.svg

<svg width="139" height="51" viewBox="0 0 139 51" fill="none" xmlns="http://www.w3.org/2000/svg">
<path d="M81.098 19.2735H80.6509C80.5391 19.5603 80.3715 19.8471 80.1479 20.0766C79.9803 20.3635 79.7009 20.5929 79.4214 20.765C79.142 20.9371 78.7508 21.1092 78.3596 21.224C77.9685 21.3387 77.4655 21.3961 76.8508 21.3961C76.1243 21.3961 75.3978 21.2813 74.7831 20.9945C74.1124 20.7077 73.5536 20.3061 73.1065 19.7898C72.6036 19.2735 72.2683 18.5851 71.9888 17.7819C71.7094 16.9788 71.5977 16.1182 71.5977 15.0856V14.6267C71.5977 13.6514 71.7653 12.7335 72.0447 11.9304C72.3242 11.1272 72.7153 10.4962 73.2183 9.92252C73.7213 9.40621 74.2801 8.94726 74.9507 8.66042C75.6213 8.37359 76.2919 8.25885 77.0184 8.25885C77.9685 8.25885 78.7508 8.43095 79.3097 8.83253C79.8685 9.2341 80.3156 9.75041 80.6509 10.4388H81.098V3.55469H84.1716V21.1092H81.098V19.2735ZM77.8567 18.413C78.8067 18.413 79.5891 18.1261 80.2038 17.4951C80.8185 16.864 81.098 16.0609 81.098 15.0283V14.7414C81.098 13.7088 80.8185 12.9056 80.2038 12.2746C79.5891 11.6436 78.8067 11.3567 77.8567 11.3567C76.9067 11.3567 76.1243 11.6436 75.5095 12.2746C74.8948 12.9056 74.6154 13.7088 74.6154 14.7414V15.0283C74.6154 16.0609 74.8948 16.9214 75.5095 17.4951C76.1243 18.1261 76.9067 18.413 77.8567 18.413Z" fill="white"/>
<path d="M89.9276 15.889C89.9276 16.2332 90.0394 16.5774 90.207 16.9216C90.3747 17.2084 90.5982 17.4953 90.8217 17.7247C91.1012 17.9542 91.3806 18.1263 91.7718 18.241C92.1071 18.3558 92.4983 18.4131 92.8895 18.4131C93.6718 18.4131 94.2307 18.2984 94.6219 18.0116C95.013 17.7247 95.3484 17.3805 95.516 17.0363L98.1426 18.5279C97.9749 18.8721 97.8073 19.1589 97.5278 19.5031C97.2484 19.8473 96.9131 20.1342 96.5219 20.421C96.1307 20.7079 95.6278 20.9373 95.013 21.1094C94.3983 21.2815 93.7277 21.3963 92.9453 21.3963C92.0512 21.3963 91.2129 21.2242 90.4305 20.9373C89.704 20.6505 89.0334 20.1915 88.4746 19.6179C87.9158 19.0442 87.5246 18.3558 87.1893 17.5526C86.9098 16.7495 86.7422 15.8316 86.7422 14.799V14.6269C86.7422 13.6516 86.9098 12.7911 87.2451 12.0453C87.5804 11.2422 87.9716 10.6111 88.5305 10.0374C89.0893 9.46376 89.704 9.06219 90.4864 8.77535C91.2129 8.48851 91.9953 8.31641 92.8895 8.31641C93.9513 8.31641 94.8454 8.48851 95.5719 8.89008C96.2984 9.29166 96.9131 9.7506 97.4161 10.3243C97.919 10.898 98.2543 11.529 98.4779 12.2174C98.7014 12.9058 98.8132 13.5942 98.8132 14.2253V15.889H89.9276ZM92.8336 11.1848C92.0512 11.1848 91.4365 11.4143 90.9335 11.8158C90.4305 12.2174 90.1511 12.6764 89.9835 13.25H95.6837C95.5719 12.6764 95.2925 12.16 94.7895 11.8158C94.2866 11.3569 93.6159 11.1848 92.8336 11.1848Z" fill="white"/>
<path d="M99.9844 8.66016H103.282L106.132 19.56H106.579L109.429 8.66016H112.726L109.317 21.109H103.449L99.9844 8.66016Z" fill="white"/>
<path d="M75.7875 32.8136C75.7875 33.2152 76.0111 33.502 76.4023 33.6741C76.7934 33.8462 77.5758 34.0183 78.6376 34.1331C79.8671 34.2478 80.873 34.6494 81.6554 35.2804C82.4377 35.9115 82.8289 36.772 82.8289 37.9194V38.0915C82.8289 39.3536 82.3819 40.3288 81.4877 41.0746C80.5936 41.8204 79.3641 42.1646 77.7994 42.1646C76.8493 42.1646 76.0669 42.0498 75.3963 41.763C74.7257 41.5335 74.1669 41.1893 73.7198 40.8451C73.2727 40.4435 72.9374 40.042 72.7139 39.583C72.4904 39.1241 72.3227 38.6651 72.2109 38.2636L75.061 37.2883C75.1728 37.8046 75.4522 38.2636 75.8993 38.6651C76.2905 39.0667 76.9611 39.2388 77.7994 39.2388C78.5817 39.2388 79.0847 39.1241 79.3641 38.8946C79.6435 38.6651 79.8112 38.3783 79.8112 38.0915C79.8112 37.9194 79.7553 37.7473 79.6994 37.6325C79.6435 37.5178 79.4759 37.3457 79.3082 37.2309C79.1406 37.1162 78.8611 37.0015 78.5258 36.9441C78.1905 36.8867 77.7994 36.772 77.2964 36.772C75.9552 36.6573 74.8375 36.3131 74.0551 35.682C73.2727 35.051 72.8257 34.1904 72.8257 32.9857V32.8136C72.8257 32.1826 72.9374 31.6663 73.2168 31.2073C73.4963 30.7484 73.8316 30.3468 74.2228 30.0026C74.6698 29.6584 75.1169 29.4289 75.6758 29.2568C76.2346 29.0847 76.7934 29.0273 77.4082 29.0273C78.1905 29.0273 78.8612 29.1421 79.42 29.3142C79.9788 29.4863 80.4818 29.7731 80.873 30.06C81.2642 30.3468 81.5995 30.691 81.823 31.0926C82.0465 31.4942 82.2701 31.8384 82.3819 32.1826L79.5876 33.3299C79.42 32.871 79.1965 32.5268 78.8053 32.2399C78.47 31.9531 77.967 31.8384 77.4082 31.8384C76.9052 31.8384 76.514 31.9531 76.2346 32.1252C75.8993 32.2973 75.7875 32.5268 75.7875 32.8136Z" fill="white"/>
<path d="M94.0082 39.926C93.6729 40.7291 93.2258 41.2455 92.667 41.5897C92.1081 41.9339 91.3816 42.106 90.5993 42.106C89.8728 42.106 89.2022 41.9912 88.5315 41.7044C87.8609 41.4176 87.3021 41.016 86.855 40.4423C86.3521 39.8686 85.9609 39.2376 85.6814 38.4344C85.402 37.6313 85.2344 36.7708 85.2344 35.7382V35.3366C85.2344 34.3613 85.3462 33.4434 85.6256 32.6977C85.905 31.8945 86.2962 31.2635 86.7433 30.6898C87.1903 30.1161 87.7492 29.7145 88.3639 29.4277C88.9786 29.1409 89.6492 28.9688 90.3757 28.9688C91.214 28.9688 91.9405 29.1409 92.4434 29.4277C92.9464 29.7145 93.3935 30.1735 93.6729 30.8045H94.12V29.313H97.1936V37.9755C97.1936 38.4918 97.4171 38.7213 97.8642 38.7213H98.3113V41.7044H96.1877C95.6288 41.7044 95.1818 41.5323 94.8465 41.1881C94.5112 40.8439 94.3435 40.4423 94.3435 39.8686H94.0082V39.926ZM91.2699 39.0655C92.164 39.0655 92.8905 38.7786 93.3935 38.1476C93.9523 37.5166 94.1758 36.7134 94.1758 35.6808V35.3939C94.1758 34.3613 93.8964 33.5008 93.3935 32.9271C92.8346 32.2961 92.164 32.0092 91.2699 32.0092C90.3757 32.0092 89.6492 32.2961 89.1463 32.9271C88.5874 33.5582 88.3639 34.3613 88.3639 35.3939V35.6808C88.3639 36.7134 88.6433 37.5739 89.1463 38.1476C89.6492 38.7786 90.3757 39.0655 91.2699 39.0655Z" fill="white"/>
<path d="M100.211 38.7215H104.458V27.1905H100.379V24.2074H107.532V38.7215H111.5V41.7046H100.211V38.7215Z" fill="white"/>
<path d="M116.53 32.8136C116.53 33.2152 116.753 33.502 117.144 33.6741C117.536 33.8462 118.318 34.0183 119.38 34.1331C120.609 34.2478 121.615 34.6494 122.398 35.2804C123.18 35.9115 123.571 36.772 123.571 37.9194V38.0915C123.571 39.3536 123.124 40.3288 122.23 41.0746C121.336 41.8204 120.106 42.1646 118.542 42.1646C117.592 42.1646 116.809 42.0498 116.139 41.763C115.468 41.5335 114.909 41.1893 114.462 40.8451C114.015 40.4435 113.68 40.042 113.456 39.583C113.233 39.1241 113.065 38.6651 112.953 38.2636L115.803 37.2883C115.915 37.8046 116.194 38.2636 116.641 38.6651C117.033 39.0667 117.703 39.2388 118.542 39.2388C119.324 39.2388 119.827 39.1241 120.106 38.8946C120.386 38.6651 120.553 38.3783 120.553 38.0915C120.553 37.9194 120.498 37.7473 120.442 37.6325C120.386 37.5178 120.218 37.3457 120.05 37.2309C119.883 37.1162 119.603 37.0015 119.268 36.9441C118.933 36.8867 118.542 36.772 118.039 36.772C116.697 36.6573 115.58 36.3131 114.797 35.682C114.015 35.051 113.568 34.1904 113.568 32.9857V32.8136C113.568 32.1826 113.68 31.6663 113.959 31.2073C114.238 30.7484 114.574 30.3468 114.965 30.0026C115.412 29.6584 115.859 29.4289 116.418 29.2568C116.977 29.0847 117.536 29.0273 118.15 29.0273C118.933 29.0273 119.603 29.1421 120.162 29.3142C120.721 29.4863 121.224 29.7731 121.615 30.06C122.006 30.3468 122.342 30.691 122.565 31.0926C122.789 31.4942 123.012 31.8384 123.124 32.1826L120.33 33.3299C120.162 32.871 119.939 32.5268 119.547 32.2399C119.212 31.9531 118.709 31.8384 118.15 31.8384C117.647 31.8384 117.256 31.9531 116.977 32.1252C116.641 32.2973 116.53 32.5268 116.53 32.8136Z" fill="white"/>
<path d="M134.301 39.926C133.966 40.7291 133.519 41.2455 132.96 41.5897C132.401 41.9339 131.675 42.106 130.892 42.106C130.166 42.106 129.495 41.9912 128.825 41.7044C128.154 41.4176 127.595 41.016 127.148 40.4423C126.645 39.8686 126.254 39.2376 125.974 38.4344C125.695 37.6313 125.527 36.7708 125.527 35.7382V35.3366C125.527 34.3613 125.639 33.4434 125.919 32.6977C126.198 31.8945 126.589 31.2635 127.036 30.6898C127.483 30.1161 128.042 29.7145 128.657 29.4277C129.272 29.1409 129.942 28.9688 130.669 28.9688C131.507 28.9688 132.233 29.1409 132.736 29.4277C133.239 29.7145 133.686 30.1735 133.966 30.8045H134.413V29.313H137.487V37.9755C137.487 38.4918 137.71 38.7213 138.157 38.7213H138.604V41.7044H136.481C135.922 41.7044 135.475 41.5323 135.139 41.1881C134.804 40.8439 134.636 40.4423 134.636 39.8686H134.301V39.926ZM131.619 39.0655C132.513 39.0655 133.239 38.7786 133.742 38.1476C134.301 37.5166 134.525 36.7134 134.525 35.6808V35.3939C134.525 34.3613 134.245 33.5008 133.742 32.9271C133.183 32.2961 132.513 32.0092 131.619 32.0092C130.725 32.0092 129.998 32.2961 129.495 32.9271C128.936 33.5582 128.713 34.3613 128.713 35.3939V35.6808C128.713 36.7134 128.992 37.5739 129.495 38.1476C129.998 38.7786 130.725 39.0655 131.619 39.0655Z" fill="white"/>
<path d="M45.2802 22.7177L39.1889 16.3498H55.9541V10.4409H39.1889L45.392 4.18785L41.3125 0L28.1797 13.3667L31.0298 16.3498H31.0857L32.2033 17.5546H32.2592L41.2007 26.8481L45.2802 22.7177Z" fill="#FFEB34"/>
<path d="M11.1889 2.92576L11.133 2.98313L9.95947 4.18785L0.90625 13.3667L4.9299 17.5546L11.133 11.3015V25.2992H16.8891V11.3015L22.9805 17.6693L27.06 13.4814L14.039 0L11.1889 2.92576Z" fill="#FFEB34"/>
<path d="M56.7897 34.6507H56.7338L55.6162 33.4459H55.5603L46.6188 24.1523L42.5393 28.3402L48.6306 34.6507H32.3125V40.5595H48.6306L42.4275 46.8126L46.5071 51.0005L59.6398 37.6338L56.7897 34.6507Z" fill="#FFEB34"/>
<path d="M23.0364 33.4454L16.8332 39.6985V27.1923H11.0772V39.6985L4.98579 33.3307L0.90625 37.5185L13.9272 51L27.06 37.6333L23.0364 33.4454Z" fill="#FFEB34"/>
</svg>

<svg width="139" height="51" viewBox="0 0 139 51" fill="none" xmlns="http://www.w3.org/2000/svg"><path d="M81.098 19.273h-.447c-.112.287-.28.574-.503.804-.168.286-.447.516-.727.688-.279.172-.67.344-1.061.459-.391.115-.894.172-1.51.172-.726 0-1.452-.115-2.067-.402a4.542 4.542 0 0 1-1.677-1.204c-.502-.517-.838-1.205-1.117-2.008-.28-.803-.391-1.664-.391-2.696v-.46c0-.975.167-1.893.447-2.696.28-.803.67-1.434 1.173-2.007.503-.517 1.062-.976 1.733-1.263.67-.286 1.34-.401 2.067-.401.95 0 1.733.172 2.292.574a4.17 4.17 0 0 1 1.34 1.606h.448V3.555h3.074v17.554h-3.074v-1.836zm-3.241-.86c.95 0 1.732-.287 2.347-.918s.894-1.434.894-2.467v-.287c0-1.032-.28-1.835-.894-2.466-.615-.631-1.397-.918-2.347-.918s-1.733.287-2.347.918c-.615.63-.895 1.434-.895 2.466v.287c0 1.033.28 1.893.895 2.467.614.631 1.397.918 2.347.918zM89.928 15.889c0 .344.111.688.279 1.033.168.286.391.573.615.803.28.23.559.401.95.516.335.115.726.172 1.117.172.783 0 1.342-.115 1.733-.401.391-.287.726-.631.894-.976l2.627 1.492a4.695 4.695 0 0 1-.615.975c-.28.344-.615.631-1.006.918-.391.287-.894.516-1.509.688a7.523 7.523 0 0 1-2.068.287 7.26 7.26 0 0 1-2.514-.459 5.658 5.658 0 0 1-1.956-1.32c-.56-.573-.95-1.261-1.286-2.064a8.336 8.336 0 0 1-.447-2.754v-.172c0-.975.168-1.836.503-2.582.335-.803.727-1.434 1.285-2.008a5.054 5.054 0 0 1 1.956-1.262 6.422 6.422 0 0 1 2.403-.459c1.062 0 1.956.173 2.683.574.726.402 1.341.86 1.844 1.434a5.295 5.295 0 0 1 1.062 1.893c.223.689.335 1.377.335 2.008v1.664h-8.885zm2.906-4.704c-.783 0-1.398.23-1.9.63-.504.402-.783.861-.95 1.435h5.7c-.112-.574-.391-1.09-.894-1.434-.503-.46-1.174-.631-1.956-.631zM99.984 8.66h3.298l2.85 10.9h.447l2.85-10.9h3.297l-3.409 12.449h-5.868L99.984 8.66zM75.787 32.814c0 .401.224.688.615.86.391.172 1.174.344 2.236.46 1.23.114 2.235.515 3.017 1.146.783.631 1.174 1.492 1.174 2.64v.172c0 1.262-.447 2.237-1.341 2.983-.894.745-2.124 1.09-3.689 1.09-.95 0-1.732-.115-2.403-.402a5.877 5.877 0 0 1-1.676-.918c-.447-.401-.783-.803-1.006-1.262a7.915 7.915 0 0 1-.503-1.32l2.85-.975c.112.517.391.976.838 1.377.391.402 1.062.574 1.9.574.783 0 1.286-.115 1.565-.344.28-.23.447-.517.447-.803 0-.173-.056-.345-.112-.46-.055-.114-.223-.286-.39-.401-.168-.115-.448-.23-.783-.287-.335-.057-.727-.172-1.23-.172-1.34-.115-2.459-.459-3.24-1.09-.783-.631-1.23-1.492-1.23-2.696v-.172c0-.631.111-1.148.39-1.607.28-.459.616-.86 1.007-1.204a4.392 4.392 0 0 1 1.453-.746c.559-.172 1.117-.23 1.732-.23a6.82 6.82 0 0 1 2.012.287 5 5 0 0 1 1.453.746c.391.287.727.631.95 1.033.224.401.447.745.559 1.09l-2.794 1.147c-.168-.459-.391-.803-.783-1.09-.335-.287-.838-.402-1.397-.402-.503 0-.894.115-1.173.287-.336.172-.448.402-.448.689zM94.008 39.926c-.335.803-.782 1.32-1.341 1.664-.559.344-1.285.516-2.068.516-.726 0-1.397-.115-2.068-.402-.67-.286-1.229-.688-1.676-1.262a5.895 5.895 0 0 1-1.174-2.008 7.99 7.99 0 0 1-.447-2.696v-.401c0-.976.112-1.894.392-2.64.279-.803.67-1.434 1.117-2.007.447-.574 1.006-.976 1.62-1.262a4.717 4.717 0 0 1 2.013-.46c.838 0 1.564.173 2.067.46.503.287.95.745 1.23 1.377h.447v-1.492h3.074v8.662c0 .517.223.746.67.746h.447v2.983h-2.123c-.56 0-1.006-.172-1.341-.516-.336-.344-.503-.746-.503-1.32h-.336v.058zm-2.738-.86c.894 0 1.62-.287 2.124-.918.558-.631.782-1.435.782-2.467v-.287c0-1.033-.28-1.893-.782-2.467-.56-.63-1.23-.918-2.124-.918-.894 0-1.62.287-2.124.918-.559.631-.782 1.434-.782 2.467v.287c0 1.032.28 1.893.782 2.467.503.63 1.23.917 2.124.917zM100.211 38.721h4.247v-11.53h-4.079v-2.984h7.153v14.514h3.968v2.984h-11.289v-2.983zM116.53 32.814c0 .401.223.688.614.86.392.172 1.174.344 2.236.46 1.229.114 2.235.515 3.018 1.146.782.631 1.173 1.492 1.173 2.64v.172c0 1.262-.447 2.237-1.341 2.983-.894.745-2.124 1.09-3.688 1.09-.95 0-1.733-.115-2.403-.402a5.874 5.874 0 0 1-1.677-.918c-.447-.401-.782-.803-1.006-1.262a7.977 7.977 0 0 1-.503-1.32l2.85-.975c.112.517.391.976.838 1.377.392.402 1.062.574 1.901.574.782 0 1.285-.115 1.564-.344.28-.23.447-.517.447-.803 0-.173-.055-.345-.111-.46-.056-.114-.224-.286-.392-.401-.167-.115-.447-.23-.782-.287-.335-.057-.726-.172-1.229-.172-1.342-.115-2.459-.459-3.242-1.09-.782-.631-1.229-1.492-1.229-2.696v-.172c0-.631.112-1.148.391-1.607.279-.459.615-.86 1.006-1.204a4.391 4.391 0 0 1 1.453-.746c.559-.172 1.118-.23 1.732-.23.783 0 1.453.115 2.012.287a4.995 4.995 0 0 1 1.453.746c.391.287.727.631.95 1.033.224.401.447.745.559 1.09l-2.794 1.147c-.168-.459-.391-.803-.783-1.09-.335-.287-.838-.402-1.397-.402-.503 0-.894.115-1.173.287-.336.172-.447.402-.447.689zM134.301 39.926c-.335.803-.782 1.32-1.341 1.664-.559.344-1.285.516-2.068.516-.726 0-1.397-.115-2.067-.402-.671-.286-1.23-.688-1.677-1.262a5.902 5.902 0 0 1-1.174-2.008 8 8 0 0 1-.447-2.696v-.401c0-.976.112-1.894.392-2.64.279-.803.67-1.434 1.117-2.007.447-.574 1.006-.976 1.621-1.262a4.717 4.717 0 0 1 2.012-.46c.838 0 1.564.173 2.067.46.503.287.95.745 1.23 1.377h.447v-1.492h3.074v8.662c0 .517.223.746.67.746h.447v2.983h-2.123c-.559 0-1.006-.172-1.342-.516-.335-.344-.503-.746-.503-1.32h-.335v.058zm-2.682-.86c.894 0 1.62-.287 2.123-.918.559-.631.783-1.435.783-2.467v-.287c0-1.033-.28-1.893-.783-2.467-.559-.63-1.229-.918-2.123-.918-.894 0-1.621.287-2.124.918-.559.631-.782 1.434-.782 2.467v.287c0 1.032.279 1.893.782 2.467.503.63 1.23.917 2.124.917z" fill="#fff"/><path d="M45.28 22.718L39.19 16.35h16.765v-5.91H39.19l6.203-6.252L41.312 0 28.18 13.367l2.85 2.983h.056l1.117 1.205h.056l8.942 9.293 4.08-4.13zM11.189 2.926l-.056.057-1.174 1.205-9.053 9.179 4.024 4.188 6.203-6.253v13.997h5.756V11.302l6.091 6.367 4.08-4.188L14.039 0l-2.85 2.926zM56.79 34.65h-.056l-1.118-1.204h-.056l-8.941-9.294-4.08 4.188 6.092 6.31H32.312v5.91h16.319l-6.203 6.253L46.508 51 59.64 37.633l-2.85-2.983zM23.036 33.445L16.833 39.7V27.192h-5.756V39.7L4.986 33.33l-4.08 4.188L13.927 51 27.06 37.633l-4.024-4.188z" fill="#FFEB34"/></svg>
